X:1
T:Title
%%score { ( 1 3 ) | 2 }
L:1/8
M:3/4
K:C
V:1 treble nm="Grand Piano"
V:3 treble 
V:2 bass 
V:1
 z2 z2[Q:1/4=100] [EG][DF] | [CE]2 [Ec]2 [Ec][GB] | A2 A2 AA | G2 A2 G[DF] |[M:2/4] [CE]4 | %5
[M:1/4] [EG][DF] |[M:3/4] [CE]2 [Ec]2 [Ec][GB] | A2 A2 AA | G2 E2 [B,D][DF] |[M:2/4] E4 | %10
[M:4/4] z2 c6 | z2 A2 A4 | z2 B6 | z2 c6 | z2 E6 | z2 A6 | z2 B6 |[M:7/8] z2 c- c- c3- | %18
 c2 z z z z2 |] %19
V:2
 z2 z2 [C,G,][C,G,] | [C,G,]2 [C,G,]2 [C,G,][E,C] | [F,CF]2 [F,CF]2 [F,CF][F,CF] | %3
 [G,CE]2 [G,B,F]2[K:bass] [G,CE][G,,G,] |[M:2/4] [C,G,]4 |[M:1/4] [C,G,][C,G,] | %6
[M:3/4] [C,G,]2 [C,G,]2 [C,G,][E,C] | [F,CF]2 [F,CF]2 [F,CF][F,CF] | %8
 [G,CE]2 [G,C]2 [G,,G,][G,,G,] |[M:2/4] [C,G,C]4 |[M:4/4] z4 [C,G,][C,G,][C,G,][C,G,] | %11
 [C,G,][C,C][F,CF][F,C] [F,CF][F,C] [F,C]2 | z4[K:treble] [G,D][G,D][G,D][G,DF] | %13
 [G,DF][G,DF][K:bass] [C,C]2 [C,A,][C,A,] [C,G,]2 | z4 [C,G,][C,G,] [C,G,]2 | %15
 z4 [F,C][F,C] [F,C]2 | z4[K:treble] [G,D][G,D][G,D][G,DF] | %17
[M:7/8] [G,DF][G,DF][K:bass] [C,C]2 [C,A,] [C,A,][C,G,]- | [C,G,]2 z z z z2 |] %19
V:3
 x6 | x6 | x6 | x6 |[M:2/4] x4 |[M:1/4] x2 |[M:3/4] x6 | x6 | x6 |[M:2/4] x4 | %10
[M:4/4] EG z2 EEE[Ec] | [Ed][Ec] z F z F F2 | Ac z2 FFFB | AG E2 FF E2 | EE z2 CC C2 | %15
 AA z2 FF F2 | Ac z2 FFFB |[M:7/8] AG E2 F FE- | E2 z z z z2 |] %19

